X: 253
T: Forshyttan
R: Polska
O: Vrmland
S: Knd genom Hedningarna
D: Hedningarna, Hippjokk
Z: Hkan Lidn, 2008-09-27
Q: 3/8=132
M: 9/8
L: 1/8
K: Gmix
C | D2d- d2d f2g | a3 gag fgf | d2B GB2 d2c | A2 G2 F2 D3- | 
D2d- d2d f2g | a3 gag fgf | d2B GB2 d2c | AFA G3- G2 :|
D | F2G A_Bc A3 | GFA- A3 G2F | GA _B2 c2 A3 | GFA- A3 G2c |
df2 g3 f3 | d2B GB2 d2c | AFA ABA GAG | F2G A_Bc A3 | GFA- A3 G2F | 
GA _B2 c2 A3 | GFA- A3 G2c | df2 g3 f3 | d2B GB2 d2c | AFA G3- G2 |]
